X:088 
T:Jackson's Reel 
B:CRE3.102 (RÃÂÃÂÃÂÃÂ­l Mhic Eoin)
T:The Dublin Reel
F:file ID: cre.3/088jacks_R
R:reel
L:1/8
Q:180
M:C
K:G
ef|gBB2 GBAB|GBB2 dBAB|gBB2 GBag|fgef dBAB|
"5"GBB2 GBAB|GBB2 dBAB|GBB2 GBag|fgef dBAf||
"9"add2 adbd|add2 dBAf|add3 abag |fgef dBAf|
"13"add2 adbd|add2 dBAf|g2gf gbag|(3fga e^c d2||
ef|"17"g2gf gdBd|gfgd BGBd|gfef gabg|faef dBAf|
"21"g2gf gdBd|gfgd BGBd|gfef gabg|(3fgf ef d2|]

%%%

